X:110
T:The Girl Who Broke My Heart                                                                       
M:4/4                                                                                               
L:1/8                                                                                               
K:G                                                                                                 
A|BG=FG EC C2|DGGF GABc|de=fd cBGF|D=FFE F2 dc|                                                     
BG=FG EC C2|DGGF GABc|de=fd cBGF|DGGF G3 :|                                                         
F|G2 (3Bcd gdBG|=F (3ABc =fcAF|G2 (3Bcd gdBd|BccB cAFA|                                             
G2 (3Bcd gdBG|=F2 (3ABc =fcAF|GABd cBGF|DGGF G3 :|
